src/components/00-materials/images-raw/Environment.svg

<svg width="96" height="96" viewBox="0 0 96 96" fill="none" xmlns="http://www.w3.org/2000/svg">
<path d="M52.21 15.38C55.1643 15.0717 58.1496 15.4703 60.9194 16.5431C63.6892 17.6159 66.1642 19.3321 68.14 21.55M45.75 21.5C49.03 25.32 54.08 27.12 59.93 23.61C61.8461 22.4818 63.2375 20.6407 63.7997 18.4893C64.3619 16.3379 64.0492 14.0515 62.93 12.13C60.58 8.21004 56.33 7.86004 51.67 8.27004C44.12 8.94004 36.09 13.76 36.09 13.76C36.09 13.76 39.18 13.86 45.75 21.5ZM77.31 51.45H68.32L69.85 25.52H75.78L77.31 51.45ZM77.31 63V82.7C77.31 85.54 75.4 87.86 73.06 87.86H22.94C20.6 87.86 18.69 85.54 18.69 82.7V63H77.31Z" stroke="#00008F" stroke-width="2" stroke-linecap="round" stroke-linejoin="round"/>
<path d="M31.3 80.99C33.1557 80.99 34.66 79.4857 34.66 77.63C34.66 75.7743 33.1557 74.27 31.3 74.27C29.4443 74.27 27.94 75.7743 27.94 77.63C27.94 79.4857 29.4443 80.99 31.3 80.99Z" stroke="#00008F" stroke-width="2" stroke-linecap="round" stroke-linejoin="round"/>
<path d="M44.61 80.99C46.4657 80.99 47.97 79.4857 47.97 77.63C47.97 75.7743 46.4657 74.27 44.61 74.27C42.7543 74.27 41.25 75.7743 41.25 77.63C41.25 79.4857 42.7543 80.99 44.61 80.99Z" stroke="#00008F" stroke-width="2" stroke-linecap="round" stroke-linejoin="round"/>
<path d="M18.69 51.45H77.31V63.0299H18.69V51.45Z" stroke="#00008F" stroke-width="2" stroke-linecap="round" stroke-linejoin="round"/>
</svg>

<svg width="96" height="96" viewBox="0 0 96 96" fill="none" xmlns="http://www.w3.org/2000/svg"><path d="M52.21 15.38a18.731 18.731 0 0115.93 6.17m-22.39-.05c3.28 3.82 8.33 5.62 14.18 2.11a8.41 8.41 0 003-11.48c-2.35-3.92-6.6-4.27-11.26-3.86-7.55.67-15.58 5.49-15.58 5.49s3.09.1 9.66 7.74zm31.56 29.95h-8.99l1.53-25.93h5.93l1.53 25.93zm0 11.55v19.7c0 2.84-1.91 5.16-4.25 5.16H22.94c-2.34 0-4.25-2.32-4.25-5.16V63h58.62z" stroke="#00008F" stroke-width="2" stroke-linecap="round" stroke-linejoin="round"/><path d="M31.3 80.99a3.36 3.36 0 100-6.72 3.36 3.36 0 000 6.72zM44.61 80.99a3.36 3.36 0 100-6.72 3.36 3.36 0 000 6.72zM18.69 51.45h58.62v11.58H18.69V51.45z" stroke="#00008F" stroke-width="2" stroke-linecap="round" stroke-linejoin="round"/></svg>
